icons/svg/image-filter-center-focus.svg

<svg xmlns="http://www.w3.org/2000/svg" version="1.1" baseProfile="full" width="24" height="24" viewBox="0 0 24.00 24.00" xml:space="preserve"><path fill="#000" fill-opacity="1" stroke-linejoin="round" d="M12 9c-1.66 0-3 1.34-3 3s1.34 3 3 3 3-1.34 3-3-1.34-3-3-3zm7 10h-4v2h4c1.1 0 2-.9 2-2v-4h-2m0-12h-4v2h4v4h2V5c0-1.1-.9-2-2-2zM5 5h4V3H5c-1.1 0-2 .9-2 2v4h2m0 6H3v4c0 1.1.9 2 2 2h4v-2H5v-4z"/></svg>

﻿<?xml version="1.0" encoding="utf-8"?>
<!DOCTYPE svg PUBLIC "-//W3C//DTD SVG 1.1//EN" "http://www.w3.org/Graphics/SVG/1.1/DTD/svg11.dtd">
<svg xmlns="http://www.w3.org/2000/svg" xmlns:xlink="http://www.w3.org/1999/xlink" version="1.1" baseProfile="full" width="24" height="24" viewBox="0 0 24.00 24.00" enable-background="new 0 0 24.00 24.00" xml:space="preserve">
	<path fill="#000000" fill-opacity="1" stroke-linejoin="round" d="M 12,9C 10.34,9 9,10.34 9,12C 9,13.66 10.34,15 12,15C 13.66,15 15,13.66 15,12C 15,10.34 13.66,9 12,9 Z M 19,19L 15,19L 15,21L 19,21C 20.1,21 21,20.1 21,19L 21,15L 19,15M 19,3L 15,3L 15,5L 19,5L 19,9L 21,9L 21,5C 21,3.9 20.1,3 19,3 Z M 5,5L 9,5L 9,3L 5,3C 3.9,3 3,3.9 3,5L 3,9L 5,9M 5,15L 3,15L 3,19C 3,20.1 3.9,21 5,21L 9,21L 9,19L 5,19L 5,15 Z "/>
</svg>
